X: 6919
T: Cheesewire
R: reel
M: 4/4
K: Amajor
|:F3 A =cBA(F|F)ABA BAFA|E3 F ABce|feag fecA|
F3 A =cBA(F|F)ABA BAFA|E3 F ABce|1 feag f2 fe:|2 feag f2 fg||
|:agf(g g)fe(c|c)e (3cBA BAFA|E3 F ABce|feag fece|
agf(g g)fe(c|c)e (3cBA BAFA|E3 F ABce|1 feag f2 fg:|2 feag f4||

